X:117
T:Lady Burnside's Strathspey
S:Anderson's Pocket Companion v2 p78
M:C
L:1/8
Q:1/4=120
K:DDor
A|d<dd<A F3      A   |c<cc<G E>GG>A      |d<dd<A (FA)(Aa)|f>d  f/e/d/^c/    d2d:|
A|d>df>d a>df>d      |c>ce>c g>ce>g      |d>df>d  a>df>d |a>f (a/g/)(f/e/)  d2dA|
  d<df<d a>d f/g/a/f/|c<ce>c g>c e/f/g/e/|a>fg>e  f>de>c |A>d  f/e/d/^c/ {c}d2d|]

